material/.icons/material/fountain-pen-tip.svg

<svg xmlns="http://www.w3.org/2000/svg" viewBox="0 0 24 24"><path d="M15.54 3.5l4.96 4.97-1.43 1.41-4.95-4.95 1.42-1.43M3.5 19.78l6.5-6.47c-.1-.31-.03-.7.23-.96.39-.39 1.03-.39 1.42 0 .39.4.39 1.03 0 1.42-.26.26-.65.33-.96.23l-6.47 6.5 10.61-3.55 3.53-6.36-4.94-4.95-6.37 3.53L3.5 19.78z"/></svg>

<?xml version="1.0" encoding="UTF-8"?><!DOCTYPE svg PUBLIC "-//W3C//DTD SVG 1.1//EN" "http://www.w3.org/Graphics/SVG/1.1/DTD/svg11.dtd"><svg xmlns="http://www.w3.org/2000/svg" xmlns:xlink="http://www.w3.org/1999/xlink" version="1.1" id="mdi-fountain-pen-tip" width="24" height="24" viewBox="0 0 24 24"><path d="M15.54,3.5L20.5,8.47L19.07,9.88L14.12,4.93L15.54,3.5M3.5,19.78L10,13.31C9.9,13 9.97,12.61 10.23,12.35C10.62,11.96 11.26,11.96 11.65,12.35C12.04,12.75 12.04,13.38 11.65,13.77C11.39,14.03 11,14.1 10.69,14L4.22,20.5L14.83,16.95L18.36,10.59L13.42,5.64L7.05,9.17L3.5,19.78Z" /></svg>
